markdown/vida-de-cristo/media/11-vida-de-cristo/persona-teantropica.svg

<?xml version="1.0" encoding="UTF-8" standalone="no"?>
<svg
   width="967.685"
   height="695.34491"
   overflow="hidden"
   version="1.1"
   id="svg50982"
   sodipodi:docname="persona-teantropica.svg"
   viewBox="0 0 3225.6166 2317.8163"
   inkscape:version="1.2.2 (b0a84865, 2022-12-01)"
   xmlns:inkscape="http://www.inkscape.org/namespaces/inkscape"
   xmlns:sodipodi="http://sodipodi.sourceforge.net/DTD/sodipodi-0.dtd"
   xmlns="http://www.w3.org/2000/svg"
   xmlns:svg="http://www.w3.org/2000/svg">
  <sodipodi:namedview
     id="namedview50984"
     pagecolor="#ffffff"
     bordercolor="#000000"
     borderopacity="0.25"
     inkscape:showpageshadow="2"
     inkscape:pageopacity="0.0"
     inkscape:pagecheckerboard="0"
     inkscape:deskcolor="#d1d1d1"
     showgrid="false"
     inkscape:zoom="0.093911659"
     inkscape:cx="-351.39407"
     inkscape:cy="1171.3136"
     inkscape:window-width="1309"
     inkscape:window-height="430"
     inkscape:window-x="0"
     inkscape:window-y="38"
     inkscape:window-maximized="0"
     inkscape:current-layer="svg50982" />
  <defs
     id="defs50900">
    <clipPath
       id="clip0">
      <rect
         x="0"
         y="-3"
         width="3353"
         height="2513"
         id="rect50897" />
    </clipPath>
  </defs>
  <g
     clip-path="url(#clip0)"
     transform="translate(-33.478318,-140.22656)"
     id="g50980">
    <path
       d="m 954.433,1976.06 c -133.856,-134.63 55.937,-540.36 423.907,-906.22 367.98,-365.862 774.79,-553.313 908.65,-418.685 133.85,134.629 -55.94,540.355 -423.91,906.215 -367.98,365.87 -774.79,553.32 -908.647,418.69 z"
       stroke="#ff0000"
       stroke-width="13.75"
       stroke-linejoin="round"
       stroke-miterlimit="10"
       fill="#ffff00"
       fill-rule="evenodd"
       id="path50902" />
    <path
       d="M 0,0 1364,1370"
       stroke="#000000"
       stroke-width="10.3125"
       stroke-linejoin="round"
       stroke-miterlimit="10"
       fill="none"
       fill-rule="evenodd"
       transform="matrix(1,0,0,-1,939,1984)"
       id="path50904" />
    <text
       fill="#ffff00"
       font-family="'Times New Roman', 'Times New Roman_MSFontService', sans-serif"
       font-weight="700"
       font-size="248px"
       transform="translate(301.362,310)"
       id="text50908">La Persona <tspan
   font-size="248px"
   x="1260.53"
   y="0"
   id="tspan50906">Teantrópica</tspan></text>
    <path
       d="m 301.362,337.5 h 632.5 632.498 632.5 632.5 v 24 h -632.5 -632.5 -632.498 -632.5 z"
       fill="#ffff00"
       fill-rule="evenodd"
       id="path50910" />
    <text
       font-family="'Times New Roman', 'Times New Roman_MSFontService', sans-serif"
       font-weight="700"
       font-size="165px"
       transform="rotate(-45.726116,2568.0404,-486.05447)"
       id="text50914">Naturaleza Divina<tspan
   font-size="165px"
   x="-115.375"
   y="256.97299"
   id="tspan50912">Naturaleza Humana</tspan></text>
    <text
       fill="#ffff00"
       font-family="'Times New Roman', 'Times New Roman_MSFontService', sans-serif"
       font-weight="700"
       font-size="110px"
       transform="translate(104.891,525)"
       id="text50978">Kenosis<tspan
   font-weight="400"
   font-size="110px"
   x="394.16699"
   y="0"
   id="tspan50916">–</tspan><tspan
   font-weight="400"
   font-size="110px"
   x="476.66699"
   y="0"
   id="tspan50918">Cuando Cristo</tspan><tspan
   font-weight="400"
   font-size="110px"
   x="0"
   y="132"
   id="tspan50920">adquirió</tspan><tspan
   font-weight="400"
   font-size="110px"
   x="393.59399"
   y="132"
   id="tspan50922">una naturaleza</tspan><tspan
   font-weight="400"
   font-size="110px"
   x="0"
   y="264"
   id="tspan50924">humana</tspan><tspan
   font-weight="400"
   font-size="110px"
   x="375.26001"
   y="264"
   id="tspan50926">en Su encarnación</tspan><tspan
   font-weight="400"
   font-size="110px"
   x="1180.78"
   y="264"
   id="tspan50928">,</tspan><tspan
   font-weight="400"
   font-size="110px"
   x="0"
   y="396"
   id="tspan50930">El voluntariamente</tspan><tspan
   font-weight="400"
   font-size="110px"
   x="0"
   y="528"
   id="tspan50932">restringió el acceso a Su</tspan><tspan
   font-weight="400"
   font-size="110px"
   x="0"
   y="660"
   id="tspan50934">naturaleza divina para</tspan><tspan
   font-weight="400"
   font-size="110px"
   x="0"
   y="792"
   id="tspan50936">afrontar como hombre</tspan><tspan
   font-weight="400"
   font-size="110px"
   x="0"
   y="924"
   id="tspan50938">los problemas</tspan><tspan
   font-weight="400"
   font-size="110px"
   x="641.09399"
   y="924"
   id="tspan50940">de la</tspan><tspan
   font-weight="400"
   font-size="110px"
   x="0"
   y="1056"
   id="tspan50942">experiencia</tspan><tspan
   font-weight="400"
   font-size="110px"
   x="0"
   y="1188"
   id="tspan50944">humana.</tspan><tspan
   font-style="italic"
   font-weight="400"
   font-size="110px"
   x="0"
   y="1320"
   id="tspan50946">Filipenses 2:5</tspan><tspan
   font-style="italic"
   font-weight="400"
   font-size="110px"
   x="625.625"
   y="1320"
   id="tspan50948">-</tspan><tspan
   font-style="italic"
   font-weight="400"
   font-size="110px"
   x="662.29199"
   y="1320"
   id="tspan50950">11</tspan><tspan
   font-size="110px"
   x="2183.1101"
   y="573"
   id="tspan50952">Unión Hipostática</tspan><tspan
   font-weight="400"
   font-size="110px"
   x="3063.1101"
   y="573"
   id="tspan50954">–</tspan><tspan
   font-weight="400"
   font-size="110px"
   x="2183.1101"
   y="705"
   id="tspan50956">Unión personal eterna</tspan><tspan
   font-weight="400"
   font-size="110px"
   x="2183.1101"
   y="837"
   id="tspan50958">de la deidad</tspan><tspan
   font-weight="400"
   font-size="110px"
   x="2183.1101"
   y="969"
   id="tspan50960">irreducible y la</tspan><tspan
   font-weight="400"
   font-size="110px"
   x="2183.1101"
   y="1101"
   id="tspan50962">humanidad en UNA</tspan><tspan
   font-weight="400"
   font-size="110px"
   x="2183.1101"
   y="1233"
   id="tspan50964">sola persona por</tspan><tspan
   font-weight="400"
   font-size="110px"
   x="2183.1101"
   y="1365"
   id="tspan50966">siempre, sin perdida</tspan><tspan
   font-weight="400"
   font-size="110px"
   x="2183.1101"
   y="1497"
   id="tspan50968">de la esencia por</tspan><tspan
   font-weight="400"
   font-size="110px"
   x="2183.1101"
   y="1629"
   id="tspan50970">transferencia.</tspan><tspan
   font-style="italic"
   font-weight="400"
   font-size="110px"
   x="2183.1101"
   y="1761"
   id="tspan50972">Colosenses 2:9;</tspan><tspan
   font-style="italic"
   font-weight="400"
   font-size="110px"
   x="2183.1101"
   y="1893"
   id="tspan50974">1Timoteo 2:5</tspan><tspan
   font-weight="400"
   font-size="28px"
   x="-71.891197"
   y="1927"
   id="tspan50976">R.C. Ward, February 2003</tspan></text>
  </g>
</svg>

<svg width="3353" height="2513" xmlns="http://www.w3.org/2000/svg" xmlns:xlink="http://www.w3.org/1999/xlink" overflow="hidden"><defs><clipPath id="clip0"><rect x="0" y="-3" width="3353" height="2513"/></clipPath></defs><g clip-path="url(#clip0)" transform="matrix(1 0 0 1 0 3)"><path d="M954.433 1976.06C820.577 1841.43 1010.37 1435.7 1378.34 1069.84 1746.32 703.978 2153.13 516.527 2286.99 651.155 2420.84 785.784 2231.05 1191.51 1863.08 1557.37 1495.1 1923.24 1088.29 2110.69 954.433 1976.06Z" stroke="#FF0000" stroke-width="13.75" stroke-linejoin="round" stroke-miterlimit="10" fill="#FFFF00" fill-rule="evenodd"/><path d="M0 0 1364 1370" stroke="#000000" stroke-width="10.3125" stroke-linejoin="round" stroke-miterlimit="10" fill="none" fill-rule="evenodd" transform="matrix(1 0 0 -1 939 1984)"/><text fill="#FFFF00" font-family="Times New Roman,Times New Roman_MSFontService,sans-serif" font-weight="700" font-size="248" transform="matrix(1 0 0 1 301.362 310)">La Persona <tspan font-size="248" x="1260.53" y="0">Teantrópica</tspan></text><path d="M301.362 337.5 933.862 337.5 1566.36 337.5 2198.86 337.5 2831.36 337.5 2831.36 361.5 2198.86 361.5 1566.36 361.5 933.862 361.5 301.362 361.5Z" fill="#FFFF00" fill-rule="evenodd"/><text font-family="Times New Roman,Times New Roman_MSFontService,sans-serif" font-weight="700" font-size="165" transform="matrix(0.698089 -0.716011 0.716011 0.698089 1123.34 1692)">Naturaleza Divina<tspan font-size="165" x="-115.375" y="256.973">Naturaleza Humana</tspan></text><text fill="#FFFF00" font-family="Times New Roman,Times New Roman_MSFontService,sans-serif" font-weight="700" font-size="110" transform="matrix(1 0 0 1 104.891 525)">Kenosis<tspan font-weight="400" font-size="110" x="394.167" y="0">–</tspan><tspan font-weight="400" font-size="110" x="476.667" y="0">Cuando Cristo </tspan><tspan font-weight="400" font-size="110" x="0" y="132">adquirió </tspan><tspan font-weight="400" font-size="110" x="393.594" y="132">una naturaleza </tspan><tspan font-weight="400" font-size="110" x="0" y="264">humana </tspan><tspan font-weight="400" font-size="110" x="375.26" y="264">en Su encarnación</tspan><tspan font-weight="400" font-size="110" x="1180.78" y="264">, </tspan><tspan font-weight="400" font-size="110" x="0" y="396">El voluntariamente  </tspan><tspan font-weight="400" font-size="110" x="0" y="528">restringió el acceso a Su </tspan><tspan font-weight="400" font-size="110" x="0" y="660">naturaleza  divina para </tspan><tspan font-weight="400" font-size="110" x="0" y="792">afrontar como hombre</tspan><tspan font-weight="400" font-size="110" x="0" y="924">los problemas</tspan><tspan font-weight="400" font-size="110" x="641.094" y="924">de la </tspan><tspan font-weight="400" font-size="110" x="0" y="1056">experiencia </tspan><tspan font-weight="400" font-size="110" x="0" y="1188">humana.</tspan><tspan font-style="italic" font-weight="400" font-size="110" x="0" y="1320">Filipenses 2:5</tspan><tspan font-style="italic" font-weight="400" font-size="110" x="625.625" y="1320">-</tspan><tspan font-style="italic" font-weight="400" font-size="110" x="662.292" y="1320">11</tspan><tspan font-size="110" x="2183.11" y="573">Unión Hipostática </tspan><tspan font-weight="400" font-size="110" x="3063.11" y="573">–</tspan><tspan font-weight="400" font-size="110" x="2183.11" y="705">Unión personal eterna </tspan><tspan font-weight="400" font-size="110" x="2183.11" y="837">de la deidad </tspan><tspan font-weight="400" font-size="110" x="2183.11" y="969">irreducible y la </tspan><tspan font-weight="400" font-size="110" x="2183.11" y="1101">humanidad en UNA </tspan><tspan font-weight="400" font-size="110" x="2183.11" y="1233">sola persona por </tspan><tspan font-weight="400" font-size="110" x="2183.11" y="1365">siempre, sin perdida </tspan><tspan font-weight="400" font-size="110" x="2183.11" y="1497">de la esencia por </tspan><tspan font-weight="400" font-size="110" x="2183.11" y="1629">transferencia.</tspan><tspan font-style="italic" font-weight="400" font-size="110" x="2183.11" y="1761">Colosenses 2:9; </tspan><tspan font-style="italic" font-weight="400" font-size="110" x="2183.11" y="1893">1Timoteo 2:5</tspan><tspan font-weight="400" font-size="28" x="-71.8912" y="1927">R.C. Ward, February 2003</tspan></text></g></svg>
